src/assets/logos/logo-neuro.svg

<svg width="38" height="38" viewBox="0 0 38 38" fill="none" xmlns="http://www.w3.org/2000/svg">
<path fill-rule="evenodd" clip-rule="evenodd" d="M38 19C38 29.4934 29.4934 38 19 38C8.50659 38 0 29.4934 0 19C0 8.50659 8.50659 0 19 0C29.4934 0 38 8.50659 38 19ZM25.425 15.0353L26.7852 13.6774L25.3703 12.261C21.8524 8.74307 16.1485 8.74307 12.6305 12.261L7.30627 17.5853C8.86799 19.1478 11.4008 19.1478 12.9633 17.5853L15.4586 15.0899C16.9086 13.6399 19.0328 13.2665 20.8297 13.9689L19.768 15.029L19.7688 15.0298C21.3297 16.5931 23.8617 16.5954 25.425 15.0353ZM25.3703 25.7375L30.6938 20.4141C29.1313 18.8523 26.5984 18.8523 25.0375 20.4141L22.5422 22.9094C21.0922 24.3594 18.968 24.7328 17.1711 24.0305L18.2328 22.9711C16.6719 21.407 14.1398 21.4047 12.5758 22.9648L11.2148 24.3227L12.6297 25.7375C16.1484 29.2555 21.8523 29.2555 25.3703 25.7375Z" fill="#5275FF"/>
</svg>

<svg width="38" height="38" fill="none" xmlns="http://www.w3.org/2000/svg"><path fill-rule="evenodd" clip-rule="evenodd" d="M38 19c0 10.493-8.507 19-19 19S0 29.493 0 19 8.507 0 19 0s19 8.507 19 19zm-12.575-3.965l1.36-1.358-1.415-1.416a9.009 9.009 0 0 0-12.74 0l-5.324 5.324a4 4 0 0 0 5.657 0l2.496-2.495a5.015 5.015 0 0 1 5.37-1.121l-1.061 1.06a4 4 0 0 0 5.657.006zm-.055 10.703l5.324-5.324a4 4 0 0 0-5.656 0l-2.496 2.495a5.016 5.016 0 0 1-5.37 1.122l1.06-1.06a4 4 0 0 0-5.656-.006l-1.361 1.358 1.415 1.415a9.01 9.01 0 0 0 12.74 0z" fill="#5275FF"/></svg>
